packages/foundations/assets/icons/functional/images/maps/location_pin.svg

<svg xmlns="http://www.w3.org/2000/svg" width="32" height="32" fill="none"><path fill="#1A1C1F" fill-rule="evenodd" d="M15.04 2.077c-2.585.276-4.927 1.887-6.126 4.213-.654 1.269-.88 2.217-.877 3.683.002 1.138.088 1.66.454 2.765.371 1.121.762 1.824 4.901 8.816 1.797 3.035 1.879 3.168 2.036 3.268.339.217.865.209 1.143-.019.153-.125.51-.697 1.866-2.99 2.408-4.07 4.296-7.334 4.646-8.031.3-.599.575-1.415.742-2.206.124-.584.142-.794.143-1.656.001-.821-.019-1.074-.115-1.507-.561-2.517-2.045-4.445-4.279-5.561-.632-.316-1.606-.638-2.158-.715-.571-.079-1.886-.113-2.376-.06m2.24 2.064c2.243.456 3.92 2.102 4.509 4.422.115.454.131.634.131 1.467 0 .878-.012.996-.157 1.559-.278 1.076-.357 1.23-2.658 5.158-1.743 2.975-3.062 5.173-3.106 5.173-.056 0-3.384-5.663-4.928-8.385-.788-1.39-1.011-2.177-1.009-3.562.003-1.162.134-1.787.553-2.628.93-1.866 2.624-3.055 4.687-3.291.518-.059 1.464-.018 1.978.087m-1.992 4.015c-.663.267-1.102.81-1.257 1.556-.165.793.34 1.705 1.157 2.091.315.149.414.169.812.169.395 0 .498-.021.8-.164.425-.2.797-.562.996-.969.135-.273.151-.362.151-.839s-.016-.566-.151-.839a2.24 2.24 0 0 0-.909-.934c-.375-.193-1.203-.23-1.599-.071M9.283 28.04c-.671.016-.728.025-.893.151-.567.432-.479 1.348.161 1.69l.222.119h7.254c6.805 0 7.264-.006 7.424-.093.23-.126.422-.39.502-.69.093-.347-.002-.644-.297-.928l-.226-.218-3.217-.035c-3.06-.034-9.395-.032-10.93.004"/></svg>

<svg width="32" height="32" viewBox="0 0 32 32" fill="none" xmlns="http://www.w3.org/2000/svg"><path d="M15.040 2.077 C 12.455 2.353,10.113 3.964,8.914 6.290 C 8.260 7.559,8.034 8.507,8.037 9.973 C 8.039 11.111,8.125 11.633,8.491 12.738 C 8.862 13.859,9.253 14.562,13.392 21.554 C 15.189 24.589,15.271 24.722,15.428 24.822 C 15.767 25.039,16.293 25.031,16.571 24.803 C 16.724 24.678,17.081 24.106,18.437 21.813 C 20.845 17.743,22.733 14.479,23.083 13.782 C 23.383 13.183,23.658 12.367,23.825 11.576 C 23.949 10.992,23.967 10.782,23.968 9.920 C 23.969 9.099,23.949 8.846,23.853 8.413 C 23.292 5.896,21.808 3.968,19.574 2.852 C 18.942 2.536,17.968 2.214,17.416 2.137 C 16.845 2.058,15.530 2.024,15.040 2.077 M17.280 4.141 C 19.523 4.597,21.200 6.243,21.789 8.563 C 21.904 9.017,21.920 9.197,21.920 10.030 C 21.920 10.908,21.908 11.026,21.763 11.589 C 21.485 12.665,21.406 12.819,19.105 16.747 C 17.362 19.722,16.043 21.920,15.999 21.920 C 15.943 21.920,12.615 16.257,11.071 13.535 C 10.283 12.145,10.060 11.358,10.062 9.973 C 10.065 8.811,10.196 8.186,10.615 7.345 C 11.545 5.479,13.239 4.290,15.302 4.054 C 15.820 3.995,16.766 4.036,17.280 4.141 M15.288 8.156 C 14.625 8.423,14.186 8.966,14.031 9.712 C 13.866 10.505,14.371 11.417,15.188 11.803 C 15.503 11.952,15.602 11.972,16.000 11.972 C 16.395 11.972,16.498 11.951,16.800 11.808 C 17.225 11.608,17.597 11.246,17.796 10.839 C 17.931 10.566,17.947 10.477,17.947 10.000 C 17.947 9.523,17.931 9.434,17.796 9.161 C 17.612 8.786,17.251 8.416,16.887 8.227 C 16.512 8.034,15.684 7.997,15.288 8.156 M9.283 28.040 C 8.612 28.056,8.555 28.065,8.390 28.191 C 7.823 28.623,7.911 29.539,8.551 29.881 L 8.773 30.000 16.027 30.000 C 22.832 30.000,23.291 29.994,23.451 29.907 C 23.681 29.781,23.873 29.517,23.953 29.217 C 24.046 28.870,23.951 28.573,23.656 28.289 L 23.430 28.071 20.213 28.036 C 17.153 28.002,10.818 28.004,9.283 28.040 " fill="#1A1C1F" stroke="none" fill-rule="evenodd"></path></svg>
